X:35
T:Swinging on the Gate
M:C|
R:reel
E:7
Z:From Bulmer and Sharpley.  Definitely a tune for the fiddles.
Z:Boston 
R:reel
K:D
FA|d2AF D2 EF|G2FG FDB,D|A,DFA d2 cA|(3Bcd ed cABc|dBAF~D2 EF|GEFD EDB,D|GE (3FED EDB,G,|A,B,DE D2:|
FA|~d2 de faef|dcBA F2 ED|B,E ~E2 GFED|B,DEF GABc|dcde (3fga ef|dcBA F2 EF|(3GFE FD EDB,G,|A,B,DE D2:|
<end>
<start>
